src/pos-icons/home-lock.svg

<svg height="24" viewBox="0 0 24 24" width="24" xmlns="http://www.w3.org/2000/svg"><path d="m12 3-10 9h3v8h14v-8h3zm0 6a3 3 0 0 1 3 3v1h1v4h-8v-4h1v-1a3 3 0 0 1 3-3m0 2a1 1 0 0 0 -1 1v1h2v-1c0-.5-.4-1-1-1z"/></svg>

<?xml version="1.0" encoding="UTF-8"?><!DOCTYPE svg PUBLIC "-//W3C//DTD SVG 1.1//EN" "http://www.w3.org/Graphics/SVG/1.1/DTD/svg11.dtd"><svg xmlns="http://www.w3.org/2000/svg" xmlns:xlink="http://www.w3.org/1999/xlink" version="1.1" id="mdi-home-lock" width="24" height="24" viewBox="0 0 24 24"><path d="M12,3L2,12H5V20H19V12H22L12,3M12,9A3,3 0 0,1 15,12V13H16V17H8V13H9V12A3,3 0 0,1 12,9M12,11A1,1 0 0,0 11,12V13H13V12C13,11.5 12.6,11 12,11Z" /></svg>
